X: 215
T: Izvorno Oro
O: Macedonia
M: 7/8
L: 1/8
K: Aphr^C
Q: 1/4=150
%%MIDI program 69 English Horn
efdc de2|efd e2e2|efdc de2|efd e2e2:|
BAG GAB2|efd c2c2|BAG GAB2|efd e2e2|



